X: 79
T: the Pigeon on the Gate
R: reel
Z: 2012 John Chambers <jc@trillian.mit.edu>
B: "100 Essential Irish Session Tunes" 1995 Dave Mallinson, ed.
M: 4/4
L: 1/8
K: Edor
dc |\
"Em"BE~E2 BEdE | "Em"BE~E2 BcBA | "D"D2FD ADFD | DEFA "Bm"BAdc |\
"Em"BE~E2 BEdE | "Em"BE~E2 BcBA | "D"D2FA fefe | "Bm"dBAF "Em"E2 :|
|: ze |\
"Em"Beed efed | Beef gfed | "Bm"Bd~d2 dedB | "A"ABde fded |\
"Em"Beed efed | Beef g2fg | "D"afge fdec | "Bm"dBAF "Em"E2 :|

%%sep 2 1 500
%%sep 1 1 500

